archdroid-icon-theme/Archdroid-BlueGreyDark/status/scalable/audio-input-microphone-high-symbolic.svg

<svg fill="#263238" height="38" viewBox="0 0 40 38" width="40" xmlns="http://www.w3.org/2000/svg"><path d="m36 14c2.21 0 4-1.79 4-4s-1.79-4-4-4-4 1.79-4 4 1.79 4 4 4zm0 4c-2.21 0-4 1.79-4 4s1.79 4 4 4 4-1.79 4-4-1.79-4-4-4zm0 12c-2.21 0-4 1.79-4 4s1.79 4 4 4 4-1.79 4-4-1.79-4-4-4zm-22-6c3.31 0 5.98-2.69 5.98-6l.02-12c0-3.32-2.68-6-6-6-3.31 0-6 2.68-6 6v12c0 3.31 2.69 6 6 6zm10.6-6c0 6-5.07 10.2-10.6 10.2-5.52 0-10.6-4.2-10.6-10.2h-3.4c0 6.83 5.44 12.47 12 13.44v6.56h4v-6.56c6.56-.97 12-6.61 12-13.44z" fill="#263238"/></svg>

<svg fill="#263238" height="38" version="1.1" viewBox="0 0 40 38" width="40" xmlns="http://www.w3.org/2000/svg"><path d="m36 14c2.21 0 4-1.79 4-4 0-2.21-1.79-4-4-4-2.21 0-4 1.79-4 4 0 2.21 1.79 4 4 4zm0 4c-2.21 0-4 1.79-4 4 0 2.21 1.79 4 4 4 2.21 0 4-1.79 4-4 0-2.21-1.79-4-4-4zm0 12c-2.21 0-4 1.79-4 4 0 2.21 1.79 4 4 4 2.21 0 4-1.79 4-4 0-2.21-1.79-4-4-4zM14 24c3.31 0 5.98-2.69 5.98-6L20 6C20 2.68 17.32 0 14 0 10.69 0 8 2.68 8 6L8 18C8 21.31 10.69 24 14 24ZM24.6 18C24.6 24 19.53 28.2 14 28.2 8.48 28.2 3.4 24 3.4 18L0 18c0 6.83 5.44 12.47 12 13.44L12 38l4 0 0-6.56C22.56 30.47 28 24.83 28 18l-3.4 0z" fill="#263238"/></svg>
